64x64/mimetypes/application-x-ktheme.svg

<svg height="64" width="64" xmlns="http://www.w3.org/2000/svg"><path d="m12.75 5c-1.524 0-2.75 1.249-2.75 2.8v50.4c0 1.551 1.226 2.8 2.75 2.8h38.5c1.523 0 2.75-1.249 2.75-2.8v-37.2l-14-2-2-14z" opacity=".2"/><path d="m12.75 4c-1.524 0-2.75 1.249-2.75 2.8v37.8c0 1.551 1.404 3.513 2.75 2.8l38.5-20.4c1.346-.713 2.75-1.249 2.75-2.8v-4.2l-14-2-2-14z" fill="#1ab5bc"/><path d="m42.562 19.742-22.392 16.893 30.973 23.365h.107c1.523 0 2.75-1.249 2.75-2.8v-36.4z" fill="#df5b6f"/><path d="m20.213 36.509-10.213 7.705v12.986c0 1.551 1.226 2.8 2.75 2.8h38.5c.056 0 .109-.013.164-.016z" fill="#445c5c"/><path d="m42.562 19.742-22.392 16.893 33.83-13.055v-3.58z" fill="#9f327b"/><path d="m24 27c-1.108 0-2 .892-2 2s.892 2 2 2 2-.892 2-2-.892-2-2-2zm12 0-4 4 6 6-6 6 4 4 6-6 4-4-4-4zm-15 12c-1.662 0-3 1.338-3 3s1.338 3 3 3 3-1.338 3-3-1.338-3-3-3zm7 8c-2.216 0-4 1.784-4 4s1.784 4 4 4 4-1.784 4-4-1.784-4-4-4z" opacity=".2"/><path d="m24 26c-1.108 0-2 .892-2 2s.892 2 2 2 2-.892 2-2-.892-2-2-2zm12 0-4 4 6 6-6 6 4 4 6-6 4-4-4-4zm-15 12c-1.662 0-3 1.338-3 3s1.338 3 3 3 3-1.338 3-3-1.338-3-3-3zm7 8c-2.216 0-4 1.784-4 4s1.784 4 4 4 4-1.784 4-4-1.784-4-4-4z" fill="#f4f4f7"/><path d="m38 5v13.333a2.667 2.667 0 0 0 2.667 2.667h13.333z" opacity=".2"/><path d="m38 4v13.333a2.667 2.667 0 0 0 2.667 2.667h13.333z" fill="#64d6db"/><path d="m12.75 4c-1.524 0-2.75 1.25-2.75 2.8v1c0-1.55 1.226-2.8 2.75-2.8h25.25v-1z" fill="#f4f4f7" opacity=".2"/></svg>

<svg xmlns="http://www.w3.org/2000/svg" width="64" height="64"><path style="opacity:.2" d="M12.75 5C11.226 5 10 6.249 10 7.8v50.4c0 1.551 1.226 2.8 2.75 2.8h38.5c1.523 0 2.75-1.249 2.75-2.8V21l-14-2-2-14z"/><path style="fill:#1ab5bc" d="M12.75 4C11.226 4 10 5.249 10 6.8v37.8c0 1.551 1.404 3.513 2.75 2.8L51.25 27c1.346-.713 2.75-1.249 2.75-2.8V20l-14-2-2-14z"/><path style="fill:#df5b6f" d="M42.562 19.742 20.17 36.635 51.143 60h.107c1.523 0 2.75-1.249 2.75-2.8V20.8z"/><path style="fill:#445c5c" d="M20.213 36.509 10 44.214V57.2c0 1.551 1.226 2.8 2.75 2.8h38.5c.056 0 .109-.013.164-.016z"/><path style="fill:#9f327b" d="M42.562 19.742 20.17 36.635 54 23.58V20z"/><path style="opacity:.2" d="M24 27c-1.108 0-2 .892-2 2s.892 2 2 2 2-.892 2-2-.892-2-2-2zm12 0-4 4 6 6-6 6 4 4 6-6 4-4-4-4zM21 39c-1.662 0-3 1.338-3 3s1.338 3 3 3 3-1.338 3-3-1.338-3-3-3zm7 8c-2.216 0-4 1.784-4 4s1.784 4 4 4 4-1.784 4-4-1.784-4-4-4z"/><path style="fill:#f4f4f7" d="M24 26c-1.108 0-2 .892-2 2s.892 2 2 2 2-.892 2-2-.892-2-2-2zm12 0-4 4 6 6-6 6 4 4 6-6 4-4-4-4zM21 38c-1.662 0-3 1.338-3 3s1.338 3 3 3 3-1.338 3-3-1.338-3-3-3zm7 8c-2.216 0-4 1.784-4 4s1.784 4 4 4 4-1.784 4-4-1.784-4-4-4z"/><path style="opacity:.2" d="M38 5v13.333A2.667 2.667 0 0 0 40.667 21H54z"/><path style="fill:#64d6db" d="M38 4v13.333A2.667 2.667 0 0 0 40.667 20H54z"/><path style="opacity:.2;fill:#f4f4f7" d="M12.75 4C11.226 4 10 5.25 10 6.8v1C10 6.25 11.226 5 12.75 5H38V4H12.75z"/></svg>
